X: 54
T: No_14_The_Man_Who_Stayed_at_Home.krn
%%abc-version 2.0
%%abcx-abcm2ps-target-version 5.9.1 (29 Sep 2008)
%%abc-creator hum2abc beta
%%abcx-conversion-date 2020/08/10 18:54:56
%%humdrum-veritas 1751688928
%%humdrum-veritas-data 3257720470
%%linebreak <none>
%%barnumbers 0
L: 1/4
M: 2/4
K: F clef=bass
[K:clef=bass][M:2/4]DD | 
D/A,/A, | 
A,/F,/F, | 
A,A,3//A,// | 
!fermata!B,2 ||  
[M:3/4]A,>B,A, ||  
[M:2/4]F,F, | 
D,2- | 
D,2- | 
D,F, | 
A,A, ||  
[M:3/4]A,/>B,/G,F, ||  
[M:2/4]G,F, | 
D,2- ||  
[M:3/4]D,2A,, ||  
[M:2/4]D,D, | 
F,D,/D,/ | 
A,,3/A,,/ | 
A,,2 |]  


